apps/24/preferences-desktop-wallpaper.svg

<?xml version="1.0" encoding="UTF-8" standalone="no"?>
<!-- Created with Inkscape (http://www.inkscape.org/) -->

<svg
   xmlns:svg="http://www.w3.org/2000/svg"
   xmlns="http://www.w3.org/2000/svg"
   xmlns:xlink="http://www.w3.org/1999/xlink"
   version="1.0"
   width="24"
   height="24"
   id="svg2">
  <defs
     id="defs4">
    <linearGradient
       id="linearGradient10691">
      <stop
         id="stop10693"
         style="stop-color:black;stop-opacity:1"
         offset="0" />
      <stop
         id="stop10695"
         style="stop-color:black;stop-opacity:0"
         offset="1" />
    </linearGradient>
    <radialGradient
       cx="6.702713"
       cy="73.615715"
       r="7.228416"
       fx="6.702713"
       fy="73.615715"
       id="radialGradient2540"
       xlink:href="#linearGradient10691"
       gradientUnits="userSpaceOnUse"
       gradientTransform="scale(1.902215,0.525703)" />
    <linearGradient
       id="linearGradient2190">
      <stop
         id="stop2192"
         style="stop-color:#dadada;stop-opacity:1"
         offset="0" />
      <stop
         id="stop2196"
         style="stop-color:#707070;stop-opacity:1"
         offset="1" />
    </linearGradient>
    <linearGradient
       x1="72.67894"
       y1="204.05263"
       x2="72.67894"
       y2="180.04262"
       id="linearGradient2554"
       xlink:href="#linearGradient2190"
       gradientUnits="userSpaceOnUse"
       gradientTransform="matrix(0.0973309,0,0,0.09528545,4.9260911,1.211369)" />
    <linearGradient
       id="linearGradient2327">
      <stop
         id="stop2329"
         style="stop-color:#131313;stop-opacity:1"
         offset="0" />
      <stop
         id="stop2331"
         style="stop-color:#585858;stop-opacity:1"
         offset="1" />
    </linearGradient>
    <linearGradient
       x1="32.733955"
       y1="3.1467361"
       x2="32.733955"
       y2="33.843147"
       id="linearGradient2550"
       xlink:href="#linearGradient2327"
       gradientUnits="userSpaceOnUse"
       gradientTransform="matrix(0.4960448,0,0,0.5115904,0.04541223,-0.0159441)" />
    <linearGradient
       id="linearGradient2327-988-473">
      <stop
         id="stop2920"
         style="stop-color:#2f537b;stop-opacity:1"
         offset="0" />
      <stop
         id="stop2922"
         style="stop-color:#76a7dd;stop-opacity:1"
         offset="1" />
    </linearGradient>
    <linearGradient
       x1="17.605015"
       y1="31.695873"
       x2="17.605015"
       y2="1.4999621"
       id="linearGradient3571"
       xlink:href="#linearGradient2327-988-473"
       gradientUnits="userSpaceOnUse"
       gradientTransform="matrix(0.5121946,0,0,0.5333326,-1.8292446,0.7000213)" />
    <linearGradient
       id="linearGradient8589">
      <stop
         id="stop8591"
         style="stop-color:#fefefe;stop-opacity:1"
         offset="0" />
      <stop
         id="stop8593"
         style="stop-color:#cbcbcb;stop-opacity:1"
         offset="1" />
    </linearGradient>
    <linearGradient
       x1="32.892288"
       y1="8.0590115"
       x2="36.358372"
       y2="5.4565363"
       id="linearGradient3582"
       xlink:href="#linearGradient8589"
       gradientUnits="userSpaceOnUse"
       gradientTransform="matrix(1.4357745,0,0,1.5351225,-63.22379,-8.6173287)" />
    <linearGradient
       id="linearGradient6240">
      <stop
         id="stop6242"
         style="stop-color:white;stop-opacity:1"
         offset="0" />
      <stop
         id="stop6244"
         style="stop-color:white;stop-opacity:0"
         offset="1" />
    </linearGradient>
    <linearGradient
       x1="20.156862"
       y1="5.0996137"
       x2="20.156862"
       y2="26.039215"
       id="linearGradient6034"
       xlink:href="#linearGradient6240"
       gradientUnits="userSpaceOnUse"
       gradientTransform="matrix(0.5838421,0,0,0.6097826,-2.01679,-3.378261)" />
  </defs>
  <g
     id="layer1">
    <path
       d="m 26.5,38.700001 a 13.75,3.8 0 1 1 -27.5,0 13.75,3.8 0 1 1 27.5,0 z"
       transform="matrix(0.8236694,0,0,0.9151882,1.498215,-15.145499)"
       id="path2883"
       style="opacity:0.5;fill:url(#radialGradient2540);fill-opacity:1;fill-rule:nonzero;stroke:none;stroke-width:0.80000001;marker:none;visibility:visible;display:inline;overflow:visible" />
    <path
       d="m 6.9999998,18.253402 c 0,0 -0.722479,2.985481 -0.722479,3.18491 0,0.188381 -0.162568,1.301817 0.499059,1.301817 0.650049,0 10.0692762,0 10.5741272,0 0.505802,0 0.34403,-1.333309 0.387858,-1.438426 C 17.780955,21.200037 17,18.25 17,18.25 L 6.9999998,18.2534 z"
       id="path2170"
       style="fill:#b3b3b3;fill-opacity:1;fill-rule:evenodd;stroke:#4d4d4d;stroke-width:0.51974148;stroke-linecap:round;stroke-linejoin:round;stroke-miterlimit:4;stroke-opacity:1;stroke-dasharray:none" />
    <path
       d="m 6.9999998,17.012906 c 0,0 -0.55264,2.973699 -0.679275,3.436376 -0.125773,0.459526 -0.09785,0.541046 0.4784385,0.541046 0.564654,0 10.0139917,0 10.4705877,0 0.468083,0 0.519174,-0.162785 0.440103,-0.546247 C 17.632534,20.06912 17,17.009672 17,17.009672 l -10.0000002,0.0032 z"
       id="path2186"
       style="opacity:0.6;fill:url(#linearGradient2554);fill-opacity:1;fill-rule:evenodd;stroke:#b3b3b3;stroke-width:0.51934463;stroke-linecap:round;stroke-linejoin:round;stroke-miterlimit:4;stroke-opacity:1;stroke-dasharray:none" />
    <path
       d="m 1.0939778,0.25458836 c 7.2706814,0 14.5413632,0 21.8120442,0 0.81056,-0.006772 0.879819,0.89668854 0.825588,1.52004614 0,5.3700657 -2e-6,10.7401315 -2e-6,16.1101955 0.0066,0.831019 -0.874613,0.902025 -1.482624,0.846425 -7.051669,0 -14.1033377,0 -21.1550062,0 -0.8105605,0.0068 -0.87981886,-0.896687 -0.82558703,-1.520045 0,-5.370066 0,-10.7401311 0,-16.1101968 C 0.25767445,0.64603801 0.65005293,0.2436393 1.0939778,0.25458836 z"
       id="rect3170"
       style="fill:#333;fill-opacity:1;fill-rule:evenodd;stroke:#1a1a1a;stroke-width:0.50874037;stroke-linecap:round;stroke-linejoin:round;stroke-miterlimit:4;stroke-opacity:1;stroke-dasharray:none;stroke-dashoffset:0;marker:none;visibility:visible;display:inline;overflow:visible;enable-background:accumulate" />
    <path
       d="m 1.2544863,1.2544866 c 7.1636764,0 14.3273527,0 21.4910277,0 0,5.4970087 0,10.9940174 0,16.4910274 -7.163675,0 -14.3273513,0 -21.4910277,0 0,-5.49701 0,-10.9940187 0,-16.4910274 z"
       id="rect4151"
       style="fill:url(#linearGradient2550);fill-opacity:1;fill-rule:evenodd;stroke:black;stroke-width:0.50897282;stroke-linecap:round;stroke-linejoin:round;stroke-miterlimit:4;stroke-opacity:1;stroke-dasharray:none;stroke-dashoffset:0;marker:none;visibility:visible;display:inline;overflow:visible;enable-background:accumulate" />
    <path
       d="m 1.5,1.5 c 4.1079493,0 8.2890745,0 12.397024,0 0.720627,0.2588684 7.592037,5.1890174 8.602976,7.2310505 0,6.2499695 0,2.5189795 0,8.7689495 -5.975618,0 -15.0243842,0 -21,0 0,-8.0000038 0,-7.9999969 0,-16 z"
       id="path4322"
       style="fill:url(#linearGradient3571);fill-opacity:1;stroke:none;display:inline" />
    <g
       transform="matrix(0.47865,0,0,0.4685788,24.1726,4.4684425)"
       id="g3578">
      <path
         d="m -23.440734,-5.641351 c 3.638583,-0.3502006 2.843232,14.0200363 2.843232,14.0200363 0,0 16.0932194,-0.848461 16.5248074,1.9543377 C -0.2219476,7.0641193 -20.726202,-6.4280509 -23.440734,-5.641351 z"
         id="path4891"
         style="opacity:0.2;fill:black;fill-opacity:1;fill-rule:evenodd;stroke:black;stroke-width:3.16731143;stroke-linecap:butt;stroke-linejoin:round;stroke-miterlimit:4;stroke-opacity:0.44444442;stroke-dasharray:none;display:inline" />
      <path
         d="m -21.917085,-6.2412521 c 3.568454,0.6555559 3.193387,12.1626574 3.193387,12.1626574 0,0 14.6712744,-0.7593 15.0264174,2.627962 0.922416,-1.993082 -10.6585334,-12.0680113 -16.3545704,-14.3365243 -0.731915,-0.2914938 -1.366664,-0.4540951 -1.865234,-0.4540951 z"
         id="path4893"
         style="fill:url(#linearGradient3582);fill-opacity:1;fill-rule:evenodd;stroke:none;display:inline" />
    </g>
    <path
       d="M 1.5,1.5191301 1.5,12.5 C 11.10096,11.674202 14.694065,6.3336231 22.499995,5.7756511 l 5e-6,-4.275651 -21,0.01913 z"
       id="path4073"
       style="opacity:0.4;fill:url(#linearGradient6034);fill-opacity:1;fill-rule:evenodd;stroke:none" />
  </g>
</svg>

<?xml version="1.0" encoding="UTF-8" standalone="no"?>
<!-- Created with Inkscape (http://www.inkscape.org/) -->
<svg
   xmlns:dc="http://purl.org/dc/elements/1.1/"
   xmlns:cc="http://creativecommons.org/ns#"
   xmlns:rdf="http://www.w3.org/1999/02/22-rdf-syntax-ns#"
   xmlns:svg="http://www.w3.org/2000/svg"
   xmlns="http://www.w3.org/2000/svg"
   xmlns:xlink="http://www.w3.org/1999/xlink"
   xmlns:sodipodi="http://sodipodi.sourceforge.net/DTD/sodipodi-0.dtd"
   xmlns:inkscape="http://www.inkscape.org/namespaces/inkscape"
   width="24"
   height="24"
   id="svg2"
   sodipodi:version="0.32"
   inkscape:version="0.46"
   version="1.0"
   sodipodi:docname="preferences-desktop-wallpaper.svg"
   inkscape:output_extension="org.inkscape.output.svg.inkscape">
  <defs
     id="defs4">
    <linearGradient
       id="linearGradient10691"
       inkscape:collect="always">
      <stop
         id="stop10693"
         offset="0"
         style="stop-color:#000000;stop-opacity:1;" />
      <stop
         id="stop10695"
         offset="1"
         style="stop-color:#000000;stop-opacity:0;" />
    </linearGradient>
    <radialGradient
       inkscape:collect="always"
       xlink:href="#linearGradient10691"
       id="radialGradient2540"
       gradientUnits="userSpaceOnUse"
       gradientTransform="scale(1.902215,0.525703)"
       cx="6.702713"
       cy="73.615715"
       fx="6.702713"
       fy="73.615715"
       r="7.228416" />
    <linearGradient
       id="linearGradient2190">
      <stop
         id="stop2192"
         offset="0"
         style="stop-color:#dadada;stop-opacity:1;" />
      <stop
         id="stop2196"
         offset="1"
         style="stop-color:#707070;stop-opacity:1;" />
    </linearGradient>
    <linearGradient
       inkscape:collect="always"
       xlink:href="#linearGradient2190"
       id="linearGradient2554"
       gradientUnits="userSpaceOnUse"
       gradientTransform="matrix(9.73309e-2,0,0,9.528545e-2,4.9260911,1.211369)"
       x1="72.67894"
       y1="204.05263"
       x2="72.67894"
       y2="180.04262" />
    <linearGradient
       id="linearGradient2327">
      <stop
         style="stop-color:#131313;stop-opacity:1;"
         offset="0"
         id="stop2329" />
      <stop
         style="stop-color:#585858;stop-opacity:1;"
         offset="1"
         id="stop2331" />
    </linearGradient>
    <linearGradient
       inkscape:collect="always"
       xlink:href="#linearGradient2327"
       id="linearGradient2550"
       gradientUnits="userSpaceOnUse"
       gradientTransform="matrix(0.4960448,0,0,0.5115904,4.5412227e-2,-1.5944102e-2)"
       x1="32.733955"
       y1="3.1467361"
       x2="32.733955"
       y2="33.843147" />
    <linearGradient
       id="linearGradient2327-988-473">
      <stop
         id="stop2920"
         offset="0"
         style="stop-color:#2f537b;stop-opacity:1;" />
      <stop
         id="stop2922"
         offset="1"
         style="stop-color:#76a7dd;stop-opacity:1;" />
    </linearGradient>
    <linearGradient
       inkscape:collect="always"
       xlink:href="#linearGradient2327-988-473"
       id="linearGradient3571"
       gradientUnits="userSpaceOnUse"
       gradientTransform="matrix(0.5121946,0,0,0.5333326,-1.8292446,0.7000213)"
       x1="17.605015"
       y1="31.695873"
       x2="17.605015"
       y2="1.4999621" />
    <linearGradient
       id="linearGradient8589">
      <stop
         id="stop8591"
         offset="0"
         style="stop-color:#fefefe;stop-opacity:1" />
      <stop
         id="stop8593"
         offset="1"
         style="stop-color:#cbcbcb;stop-opacity:1;" />
    </linearGradient>
    <linearGradient
       inkscape:collect="always"
       xlink:href="#linearGradient8589"
       id="linearGradient3582"
       gradientUnits="userSpaceOnUse"
       gradientTransform="matrix(1.4357745,0,0,1.5351225,-63.22379,-8.6173287)"
       x1="32.892288"
       y1="8.0590115"
       x2="36.358372"
       y2="5.4565363" />
    <linearGradient
       inkscape:collect="always"
       id="linearGradient6240">
      <stop
         style="stop-color:#ffffff;stop-opacity:1;"
         offset="0"
         id="stop6242" />
      <stop
         style="stop-color:#ffffff;stop-opacity:0;"
         offset="1"
         id="stop6244" />
    </linearGradient>
    <linearGradient
       inkscape:collect="always"
       xlink:href="#linearGradient6240"
       id="linearGradient6034"
       gradientUnits="userSpaceOnUse"
       gradientTransform="matrix(0.5838421,0,0,0.6097826,-2.01679,-3.378261)"
       x1="20.156862"
       y1="5.0996137"
       x2="20.156862"
       y2="26.039215" />
  </defs>
  <sodipodi:namedview
     id="base"
     pagecolor="#ffffff"
     bordercolor="#666666"
     borderopacity="1.0"
     gridtolerance="10000"
     guidetolerance="10"
     objecttolerance="10"
     inkscape:pageopacity="0.0"
     inkscape:pageshadow="2"
     inkscape:zoom="10.375"
     inkscape:cx="12"
     inkscape:cy="12"
     inkscape:document-units="px"
     inkscape:current-layer="layer1"
     showgrid="false"
     inkscape:window-width="640"
     inkscape:window-height="720"
     inkscape:window-x="798"
     inkscape:window-y="24" />
  <metadata
     id="metadata7">
    <rdf:RDF>
      <cc:Work
         rdf:about="">
        <dc:format>image/svg+xml</dc:format>
        <dc:type
           rdf:resource="http://purl.org/dc/dcmitype/StillImage" />
      </cc:Work>
    </rdf:RDF>
  </metadata>
  <g
     inkscape:label="Layer 1"
     inkscape:groupmode="layer"
     id="layer1">
    <path
       transform="matrix(0.8236694,0,0,0.9151882,1.498215,-15.145499)"
       d="M 26.5,38.700001 A 13.75,3.8 0 1 1 -1,38.700001 A 13.75,3.8 0 1 1 26.5,38.700001 z"
       sodipodi:ry="3.8"
       sodipodi:rx="13.75"
       sodipodi:cy="38.700001"
       sodipodi:cx="12.75"
       id="path2883"
       style="opacity:0.50000000000000000;fill:url(#radialGradient2540);fill-opacity:1;fill-rule:nonzero;stroke:none;stroke-width:0.80000000999999998;stroke-linecap:butt;stroke-linejoin:miter;marker:none;marker-start:none;marker-mid:none;marker-end:none;stroke-miterlimit:4;stroke-dashoffset:0;stroke-opacity:1;visibility:visible;display:inline;overflow:visible"
       sodipodi:type="arc" />
    <path
       style="fill:#b3b3b3;fill-opacity:1;fill-rule:evenodd;stroke:#4d4d4d;stroke-width:0.51974147999999998;stroke-linecap:round;stroke-linejoin:round;stroke-miterlimit:4;stroke-dasharray:none;stroke-opacity:1"
       d="M 6.9999998,18.253402 C 6.9999998,18.253402 6.2775208,21.238883 6.2775208,21.438312 C 6.2775208,21.626693 6.1149528,22.740129 6.7765798,22.740129 C 7.4266288,22.740129 16.845856,22.740129 17.350707,22.740129 C 17.856509,22.740129 17.694737,21.40682 17.738565,21.301703 C 17.780955,21.200037 17,18.25 17,18.25 L 6.9999998,18.253402 z"
       id="path2170"
       sodipodi:nodetypes="czzzzcc" />
    <path
       style="opacity:0.59999999999999998;fill:url(#linearGradient2554);fill-opacity:1;fill-rule:evenodd;stroke:#b3b3b3;stroke-width:0.51934462999999997;stroke-linecap:round;stroke-linejoin:round;stroke-miterlimit:4;stroke-dasharray:none;stroke-opacity:1"
       d="M 6.9999998,17.012906 C 6.9999998,17.012906 6.4473598,19.986605 6.3207248,20.449282 C 6.1949518,20.908808 6.2228748,20.990328 6.7991633,20.990328 C 7.3638173,20.990328 16.813155,20.990328 17.269751,20.990328 C 17.737834,20.990328 17.788925,20.827543 17.709854,20.444081 C 17.632534,20.06912 17,17.009672 17,17.009672 L 6.9999998,17.012906 z"
       id="path2186"
       sodipodi:nodetypes="czzzzcc" />
    <path
       style="fill:#333333;fill-opacity:1;fill-rule:evenodd;stroke:#1a1a1a;stroke-width:0.50874037000000005;stroke-linecap:round;stroke-linejoin:round;marker:none;marker-start:none;marker-mid:none;marker-end:none;stroke-miterlimit:4;stroke-dasharray:none;stroke-dashoffset:0;stroke-opacity:1;visibility:visible;display:inline;overflow:visible;enable-background:accumulate"
       d="M 1.0939778,0.25458836 C 8.3646592,0.25458836 15.635341,0.25458836 22.906022,0.25458836 C 23.716582,0.24781673 23.785841,1.1512769 23.73161,1.7746345 C 23.73161,7.1447002 23.731608,12.514766 23.731608,17.88483 C 23.738216,18.715849 22.856995,18.786855 22.248984,18.731255 C 15.197315,18.731255 8.1456463,18.731255 1.0939778,18.731255 C 0.2834173,18.738028 0.21415894,17.834568 0.26839077,17.21121 C 0.26839077,11.841144 0.26839077,6.4710789 0.26839077,1.1010132 C 0.25767445,0.64603801 0.65005293,0.2436393 1.0939778,0.25458836 z"
       id="rect3170" />
    <path
       style="fill:url(#linearGradient2550);fill-opacity:1;fill-rule:evenodd;stroke:#000000;stroke-width:0.50897281999999999;stroke-linecap:round;stroke-linejoin:round;marker:none;marker-start:none;marker-mid:none;marker-end:none;stroke-miterlimit:4;stroke-dasharray:none;stroke-dashoffset:0;stroke-opacity:1;visibility:visible;display:inline;overflow:visible;enable-background:accumulate"
       d="M 1.2544863,1.2544866 C 8.4181627,1.2544866 15.581839,1.2544866 22.745514,1.2544866 C 22.745514,6.7514953 22.745514,12.248504 22.745514,17.745514 C 15.581839,17.745514 8.4181627,17.745514 1.2544863,17.745514 C 1.2544863,12.248504 1.2544863,6.7514953 1.2544863,1.2544866 z"
       id="rect4151" />
    <path
       style="fill:url(#linearGradient3571);fill-opacity:1;stroke:none;stroke-width:0.50000000000000000;stroke-linecap:butt;stroke-linejoin:round;stroke-miterlimit:4;stroke-dasharray:none;stroke-dashoffset:0;stroke-opacity:1;display:inline"
       d="M 1.5,1.5 C 5.6079493,1.5 9.7890745,1.5 13.897024,1.5 C 14.617651,1.7588684 21.489061,6.6890174 22.5,8.7310505 C 22.5,14.98102 22.5,11.25003 22.5,17.5 C 16.524382,17.5 7.4756158,17.5 1.5,17.5 C 1.5,9.4999962 1.5,9.5000031 1.5,1.5 z"
       id="path4322"
       sodipodi:nodetypes="cccccc" />
    <g
       id="g3578"
       transform="matrix(0.47865,0,0,0.4685788,24.1726,4.4684425)">
      <path
         sodipodi:nodetypes="cccc"
         id="path4891"
         d="M -23.440734,-5.641351 C -19.802151,-5.9915516 -20.597502,8.3786853 -20.597502,8.3786853 C -20.597502,8.3786853 -4.5042826,7.5302243 -4.0726946,10.333023 C -0.2219476,7.0641193 -20.726202,-6.4280509 -23.440734,-5.641351 z"
         style="opacity:0.2;fill:#000000;fill-opacity:1;fill-rule:evenodd;stroke:#000000;stroke-width:3.16731143;stroke-linecap:butt;stroke-linejoin:round;stroke-miterlimit:4;stroke-dasharray:none;stroke-opacity:0.44444442;display:inline" />
      <path
         sodipodi:nodetypes="cccsc"
         id="path4893"
         d="M -21.917085,-6.2412521 C -18.348631,-5.5856962 -18.723698,5.9214053 -18.723698,5.9214053 C -18.723698,5.9214053 -4.0524236,5.1621053 -3.6972806,8.5493673 C -2.7748646,6.5562853 -14.355814,-3.518644 -20.051851,-5.787157 C -20.783766,-6.0786508 -21.418515,-6.2412521 -21.917085,-6.2412521 z"
         style="fill:url(#linearGradient3582);fill-opacity:1;fill-rule:evenodd;stroke:none;stroke-width:1px;stroke-linecap:butt;stroke-linejoin:miter;stroke-opacity:1;display:inline" />
    </g>
    <path
       style="opacity:0.40000000000000002;fill:url(#linearGradient6034);fill-opacity:1;fill-rule:evenodd;stroke:none;stroke-width:1px;stroke-linecap:butt;stroke-linejoin:miter;stroke-opacity:1"
       d="M 1.5,1.5191301 L 1.5,12.5 C 11.10096,11.674202 14.694065,6.3336231 22.499995,5.7756511 L 22.5,1.5000001 L 1.5,1.5191301 z"
       id="path4073"
       sodipodi:nodetypes="ccccc" />
  </g>
</svg>
